X: 14528
T: Gan Ainm
R: barndance
M: 4/4
K: Gmajor
|:(3GFE|D2 G2 B>AG>B|d2 c2 E2- E>G|F2 A2 d2- d>c|B>cB>A G>FE>F|
D2 G2 B>A (3GAB|(3ded c2 E2- E>G|F2 d2 c>B A2|G4 G2:|
|:(3EFG|A2 d2 A2- A>B|A>GF>E D2 d>^c|B2 g2 e>d^c>e|d4 d>D (3EFG|
A2- A>B A2- A>B|c>BA>G F2 F<E|D2 e2 d>cB>A|G4 G2:|

